svgs/sharp-light/arrow-up-right-and-arrow-down-left-from-center.svg

<svg xmlns="http://www.w3.org/2000/svg" viewBox="0 0 512 512"><!--! Font Awesome Pro 6.6.0 by @fontawesome - https://fontawesome.com License - https://fontawesome.com/license (Commercial License) Copyright 2024 Fonticons, Inc. --><path d="M292.7 196.7L281.4 208 304 230.6l11.3-11.3L480 54.6 480 160l0 16 32 0 0-16 0-144 0-16L496 0 352 0 336 0l0 32 16 0 105.4 0L292.7 196.7zM219.3 315.3L230.6 304 208 281.4l-11.3 11.3L32 457.4 32 352l0-16L0 336l0 16L0 496l0 16 16 0 144 0 16 0 0-32-16 0L54.6 480 219.3 315.3z"/></svg>

<svg xmlns="http://www.w3.org/2000/svg" viewBox="0 0 512 512"><!--! Font Awesome Pro 6.4.0 by @fontawesome - https://fontawesome.com License - https://fontawesome.com/license (Commercial License) Copyright 2023 Fonticons, Inc. --><path d="M292.7 196.7L281.4 208 304 230.6l11.3-11.3L480 54.6V160v16h32V160 16 0H496 352 336V32h16H457.4L292.7 196.7zM219.3 315.3L230.6 304 208 281.4l-11.3 11.3L32 457.4V352 336H0v16V496v16H16 160h16V480H160 54.6L219.3 315.3z"/></svg>
